!!!OTL: Der Kirchenr&auml;uber Peter Paulus (229c), S.494
!!!id: T0414
**kern
*clefG2
*k[f#]
*G:
{8d
8g
=1
4g
16f#
16f#
8a
8g
8e
=2
8e
8d}
8r
=3
{8d
8d
8g
=4
4g
16f#
16f#
8a
8g
8g
=5
8e
8d}
8r
=6
{8g
8f#
8g
=7
8a
8f#
8d
8d
8g
8b
=8
4b
8a}
=9
{8a
8a
16b
16dd
=10
4cc
4b
16cc
16a
8a
=11
4g}
4r
==
*-
!!!minrhy: 16
!!!meters: 3/4 ]  ZZ[4
!!!cut: Der Kirchenr&auml;uber Peter Paulus (229c), S.494
!!!reg: Luxemburg
!!!trd: Singendes Volk, Esch-Alzette, 1937 posth.
!!!rhy1: X_X_  X__XXX_X_X_  X_X_0_
!!!rhy2: X_X_X_  X__XXX_X_X_  X_X_0_
!!!key: T0414  16  G 3/4 ]  ZZ[4
!!!mod: HEPTATONIK IONISCH]  AMBITUS[8
!!!kad: -5-521
!!!akz: 1-6_1-6_23_41_
!!!fot: 'a__av_b__c__
!!!for: 'a__av_b__c__
!!!fok: '^__^__Va_^d_
!! PHRAS[AUFTAKTIG]
!!!fkt: Berufslied
!!!bem: Heffingen, fff Anna Kimmel, 1933, aufgeschrieben
!! THILL; Mathias
!! PR[24] 2K[7] 2G[12] 3K[10] 3G[10] 4A[0] 4Ü[0] 5A[1] 6K[0] 6G[0]
!! 7K[0] 7G[0] 8A[0] MEHR[0] SI[41] ABS[68] SR[19] SP[22]
!! ST[12] 2k[1] 2g[9] 3k[13] 3g[7] 4d[3] 4ü[0] 5d[1] 6k[0] 6g[0]
!! 7k[0] 7g[0] 8d[0] mehr[0] si[35] dm[+6] sr[10] sp[25]
!! 1F[6] 2F[73] 3F[20] 4F[0] LF[0] 2P[0] 3P[1] 4P[0] TRI[0] DF[4] AB[70]
!! TF[0] U3K[0] U3[0] U4[0] U4Ü[0] U5[3] U6K[0] U6[0] U7K[0] U7[3]
!! N1[20] N2K[0] N2[16] N3K[0] N3[32] N4[7] N4Ü[0] N5[13] N6K[0] N6[6]
!!!n7k: 0] N7[0] O1[0] O2K[0] O2[0] O3K[0] O3[0] HÖ[0
!!!RNB: symbol: &auml;      = a umlaut  (UTF-8: Å„)
